svgs/solid/dial-med.svg

<svg xmlns="http://www.w3.org/2000/svg" viewBox="0 0 576 512"><!-- Font Awesome Pro 6.0.0-alpha2 by @fontawesome - https://fontawesome.com License - https://fontawesome.com/license (Commercial License) --><path d="M288 64C305.672 64 320 49.672 320 32C320 14.326 305.672 0 288 0C270.326 0 256 14.326 256 32C256 49.672 270.326 64 288 64ZM544 256C526.326 256 512 270.328 512 288C512 305.674 526.326 320 544 320S576 305.674 576 288C576 270.328 561.674 256 544 256ZM32 256C14.326 256 0 270.326 0 288C0 305.672 14.326 320 32 320S64 305.672 64 288C64 270.326 49.674 256 32 256ZM446.391 84.354C433.895 96.85 433.895 117.111 446.391 129.607C458.889 142.105 479.15 142.105 491.646 129.607C504.143 117.111 504.143 96.85 491.646 84.354C479.15 71.855 458.889 71.855 446.391 84.354ZM84.352 446.393C71.855 458.889 71.855 479.15 84.352 491.648C96.848 504.145 117.109 504.145 129.607 491.648C142.104 479.15 142.104 458.889 129.607 446.393C117.109 433.896 96.848 433.896 84.352 446.393ZM446.391 446.393C433.895 458.889 433.895 479.15 446.391 491.648C458.889 504.145 479.15 504.145 491.646 491.648C504.143 479.15 504.143 458.889 491.646 446.393S458.889 433.896 446.391 446.393ZM129.607 129.607C142.104 117.111 142.104 96.85 129.607 84.354C117.109 71.855 96.848 71.855 84.352 84.354C71.855 96.85 71.855 117.111 84.352 129.607C96.848 142.105 117.109 142.105 129.607 129.607ZM304 129.613V288C304 296.844 296.844 304 288 304S272 296.844 272 288V129.613C191.258 137.75 127.998 205.115 127.998 288C127.998 376.365 199.633 448 288 448C376.365 448 448 376.365 448 288C448 205.115 384.74 137.75 304 129.613Z"/></svg>

<svg xmlns="http://www.w3.org/2000/svg" viewBox="0 0 576 512"><!--! Font Awesome Pro 6.0.0-alpha3 by @fontawesome - https://fontawesome.com License - https://fontawesome.com/license (Commercial License) --><path d="M288 64c17.67 0 32-14.33 32-32c0-17.67-14.33-32-32-32c-17.67 0-32 14.33-32 32C256 49.67 270.3 64 288 64zM544 256c-17.67 0-32 14.33-32 32c0 17.67 14.33 32 32 32s32-14.33 32-32C576 270.3 561.7 256 544 256zM32 256c-17.67 0-32 14.33-32 32c0 17.67 14.33 32 32 32s32-14.33 32-32C64 270.3 49.67 256 32 256zM446.4 84.36c-12.5 12.5-12.5 32.76 0 45.25c12.5 12.5 32.76 12.5 45.26 0c12.5-12.5 12.5-32.76 0-45.25C479.2 71.86 458.9 71.86 446.4 84.36zM84.35 446.4c-12.5 12.5-12.5 32.76 0 45.26c12.5 12.5 32.76 12.5 45.26 0c12.5-12.5 12.5-32.76 0-45.26C117.1 433.9 96.85 433.9 84.35 446.4zM446.4 446.4c-12.5 12.5-12.5 32.76 0 45.26c12.5 12.5 32.76 12.5 45.26 0c12.5-12.5 12.5-32.76 0-45.26S458.9 433.9 446.4 446.4zM129.6 129.6c12.5-12.5 12.5-32.76 0-45.25c-12.5-12.5-32.76-12.5-45.26 0c-12.5 12.5-12.5 32.76 0 45.25C96.85 142.1 117.1 142.1 129.6 129.6zM304 129.6V288c0 8.844-7.156 16-16 16s-16-7.156-16-16V129.6C191.3 137.8 127.1 205.1 127.1 288c0 88.37 71.63 160 160 160c88.37 0 160-71.64 160-160C448 205.1 384.7 137.8 304 129.6z"/></svg>
